src/assets/daws/logic.svg

<svg fill="none" height="172" viewBox="0 0 172 172" width="172" xmlns="http://www.w3.org/2000/svg"><path d="m24.0806 10.3198c-1.892 0-3.44 1.548-3.44 3.44v144.4802c0 1.892 1.548 3.44 3.44 3.44h123.8404c1.892 0 3.44-1.548 3.44-3.44v-144.4802c0-1.892-1.548-3.44-3.44-3.44zm61.92 17.2c24.6994 0 44.7204 20.0208 44.7204 44.72s-20.021 44.7202-44.7204 44.7202c-24.6992 0-44.72-20.021-44.72-44.7202s20.0208-44.72 44.72-44.72zm0 13.76c-17.058 0-30.96 13.902-30.96 30.96s13.902 30.9602 30.96 30.9602c17.0584 0 30.9604-13.9022 30.9604-30.9602s-13.902-30.96-30.9604-30.96zm0 6.88c13.3398 0 24.0804 10.7403 24.0804 24.08 0 13.3398-10.7406 24.08-24.0804 24.08-13.3397 0-24.08-10.7402-24.08-24.08 0-13.3397 10.7403-24.08 24.08-24.08zm0 17.2c-3.7997 0-6.88 3.0803-6.88 6.88s3.0803 6.88 6.88 6.88 6.88-3.0803 6.88-6.88-3.0803-6.88-6.88-6.88zm-24.08 65.3602h48.1604c1.892 0 3.44 1.548 3.44 3.44v10.32c0 1.892-1.548 3.44-3.44 3.44h-48.1604c-1.892 0-3.44-1.548-3.44-3.44v-10.32c0-1.892 1.548-3.44 3.44-3.44z" fill="#9ca3af"/></svg>

<svg width="172" height="172" viewBox="0 0 172 172" fill="none" xmlns="http://www.w3.org/2000/svg">
<path d="M24.0806 10.3198C22.1886 10.3198 20.6406 11.8678 20.6406 13.7598V158.24C20.6406 160.132 22.1886 161.68 24.0806 161.68H147.921C149.813 161.68 151.361 160.132 151.361 158.24V13.7598C151.361 11.8678 149.813 10.3198 147.921 10.3198H24.0806ZM86.0006 27.5198C110.7 27.5198 130.721 47.5406 130.721 72.2398C130.721 96.939 110.7 116.96 86.0006 116.96C61.3014 116.96 41.2806 96.939 41.2806 72.2398C41.2806 47.5406 61.3014 27.5198 86.0006 27.5198V27.5198ZM86.0006 41.2798C68.9426 41.2798 55.0406 55.1818 55.0406 72.2398C55.0406 89.2978 68.9426 103.2 86.0006 103.2C103.059 103.2 116.961 89.2978 116.961 72.2398C116.961 55.1818 103.059 41.2798 86.0006 41.2798V41.2798ZM86.0006 48.1598C99.3404 48.1598 110.081 58.9001 110.081 72.2398C110.081 85.5796 99.3404 96.3198 86.0006 96.3198C72.6609 96.3198 61.9206 85.5796 61.9206 72.2398C61.9206 58.9001 72.6609 48.1598 86.0006 48.1598ZM86.0006 65.3598C82.2009 65.3598 79.1206 68.4401 79.1206 72.2398C79.1206 76.0395 82.2009 79.1198 86.0006 79.1198C89.8003 79.1198 92.8806 76.0395 92.8806 72.2398C92.8806 68.4401 89.8003 65.3598 86.0006 65.3598ZM61.9206 130.72H110.081C111.973 130.72 113.521 132.268 113.521 134.16V144.48C113.521 146.372 111.973 147.92 110.081 147.92H61.9206C60.0286 147.92 58.4806 146.372 58.4806 144.48V134.16C58.4806 132.268 60.0286 130.72 61.9206 130.72Z" fill="#9CA3AF"/>
</svg>
